X:992402
T:North America Massed Band 2/4 (2022)
H: 
C:
B: 
O:Kevin Fraser
Z:Kevin Fraser
Q:1/4=90
K:HP
M:2/4
L:1/8
R:March
I:linebreak $
U: R = ///
U: r = //
U: V = !accent!
V:S gstem=up stem=down dyn=up stafflines=1 clef=perc middle=G name="Snare" sname="Snare"
V:B gstem=up stem=down clef=bass dyn=up name="Bass" octave=-2
V:T gstem=up stem=down clef=perc dyn=up name="Tenor" 
I:MIDI=program 110
%%MIDI gracedivider 4
%%MIDI vol 100
T:Bass and Tenor
V:B
 [| !>!cA !V!cA | !>!cA !V!cA | !>!c2 z2 |!>!c2 z2 | 
V:T
[| ^g^e ^g^e | ^g^e  ^g^e  | ^g2 z2 | eg/>e/ g/>g/e | 
V:B
   !>!cA !V!cA | !>!cA !V!cA | !>!c2 !V!A2 |z!>!A !>!c2 | $
V:T
 ^g^e ^g^e | ^g^e  ^g^e  | g2 z2 | ze g/>g/e | $
T:
V:B
  | !>!cA !V!cA | !>!cA !V!cA | !>!c2 z2 |!>!c2 z2 | $
V:T
 ^g2 ^e2  | ^g2 ^e2    | ^g2 z2 | eg/>e/ g/>g/e |
V:B
   !>!cA !V!cA | !>!cA !V!cA | !>!c2 !V!A2 |z!>!A !>!c2 |] $
V:T
^g2 ^e2  | ^g2 ^e2    | g2 z2 | ze g/>g/e |]
T:
V:B
 [| !>!c2 !V!cA | !>!c2 !V!cA | !>!c2 z2 |!>!c2 z2 | $
V:T
[| ^g^e ^g^e | ^g^e  ^g^e  | ^g2 z2 | eg/>e/ g/>g/e |
V:B
   !>!c2 !V!cA | !>!c2 !V!cA | !>!c2 !V!A2 |z!>!A !>!c2 | $
V:T
^g^e ^g^e | ^g^e  ^g^e  | g2 z2 | ze g/>g/e |
T:
V:B
   !>!c2 !V!cA | !>!c2 !V!cA | !>!c2 z2 |!>!c2 z2 | $
V:T
 ^g2 ^e2  | ^g2 ^e2    | ^g2 z2 | eg/>e/ g/>g/e |
V:B
   !>!c2 !V!cA | !>!c2 !V!cA | !>!c2 !V!A2 |z!>!A !>!c2 |] $
V:T
^g2 ^e2  | ^g2 ^e2    | g2 z2 | ze g/>g/e |]

